X: 1
T: Ballygow, The
M: 2/4
L: 1/8
R: polka
K: Dmaj
DF/A/ df|ed Bd|Ad FA|BA FE|
DF/A/ df|ed Bd|Ad E>G|1FD DE:|2FD DB/e/||
fa/f/ ed|Bd Ad|fa/f/ ed|e2-ed|
fa/f/ ed|Bd Ad|FA E>G|1FD DB/e/:|2FD DE||
